packages/icons/svg/Outline/recording.svg

<svg fill="none" height="24" viewBox="0 0 24 24" width="24" xmlns="http://www.w3.org/2000/svg"><path clip-rule="evenodd" d="m18 14.0001c-1.103 0-2-.897-2-2s.897-2 2-2 2 .897 2 2-.897 2-2 2zm-14.00003-2c0-1.103.897-2 2-2s2 .897 2 2-.897 2-2 2-2-.897-2-2zm14.00003-4.0001c-2.206 0-4 1.794-4 4 0 .731.212 1.409.557 2h-5.114c.345-.591.557-1.269.557-2 0-2.206-1.794-4-4-4s-4 1.794-4 4 1.794 4 4 4h12c2.206 0 4-1.794 4-4s-1.794-4-4-4z" fill="#6b7280" fill-rule="evenodd"/></svg>

<svg width="24" height="24" viewBox="0 0 24 24" fill="none" xmlns="http://www.w3.org/2000/svg">
<g id="Icon/Outline/recording">
<path id="Mask" fill-rule="evenodd" clip-rule="evenodd" d="M18 14C16.897 14 16 13.103 16 12C16 10.897 16.897 10 18 10C19.103 10 20 10.897 20 12C20 13.103 19.103 14 18 14ZM4 12C4 10.897 4.897 10 6 10C7.103 10 8 10.897 8 12C8 13.103 7.103 14 6 14C4.897 14 4 13.103 4 12ZM18 8C15.794 8 14 9.794 14 12C14 12.731 14.212 13.409 14.557 14H9.443C9.788 13.409 10 12.731 10 12C10 9.794 8.206 8 6 8C3.794 8 2 9.794 2 12C2 14.206 3.794 16 6 16H18C20.206 16 22 14.206 22 12C22 9.794 20.206 8 18 8Z" fill="#000000"/>
</g>
</svg>
